X: 1
T: The Fair-haired Lass
R: reel
M: 4/4
L: 1/8
K: Amix
|:ea~a2 eg~g2|ea~a2 ABcd|ea~a2 efge|afge d2cd:|
|:eA~A2 efgf|eA~A2 BAGB|ABcd efge|afge d2cd:|


Tune 1231	Setting 14532

